X:1
T:Curvy Road to Corinth
M:C|
L:1/8
K:Em
C:Larry Unger
"Em"B2 eB gBeB |"D"dAeA fAeA |"Em"B2eB gBeg | "C"fedB "D"AGFA |!
"Em"B2 eB gBeB |"D"dAeA fAef | "C"gfed BedB | "Bm"AGFD B,DFD :|!
"C"E3 F G2E2 | "G"GDAD BDGD |"Am"E3 F G2E2 | "Bm"FEDB, D2F2|!
"C"E3 F G2E2 | "G"GDAD BDGB | "D" AdBe dBAG | "Bm"BAGF E2D2 :| "Em"E8|]!
